X: 1
T: the Bob of Fettercairn
O: Campbell's CD 1796
R: reel
Z: 2011 John Chambers <jc:trillian.mit.edu>
M: C|
L: 1/8
K: Glydian
B/c/ |\
"G"dBGB dBGB | "G"dBde "D(Bm)"f2df | "A"ecAc ecAc | "A"edef "Em"g2fe |
"G"dBGB dBGB | "G"dBde "D(Bm)"f2ed | "A"ae"D"fd "Em"edBg | "A"AA"Bm"Bd "Em"e2ge ||
|:\
"G"dgBg dgBg | "G"dgBg "D(Bm)"f2df | "A"eaca eaca | "A"edef "Em"g2fe |
"G"dgBg dgBg | "G"dgBg "D(Bm)"f2df | "A"ae"D"fd "Em"edBg | "A"AA"Bm"Bd "Em"He2ge :|
